static/assets/images/tokens/seth2.svg

<svg width="256" height="256" viewBox="0 0 256 256" fill="none" xmlns="http://www.w3.org/2000/svg">
<path d="M128 256C198.692 256 256 198.692 256 128C256 57.3075 198.692 0 128 0C57.3075 0 0 57.3075 0 128C0 198.692 57.3075 256 128 256Z" fill="black"/>
<path d="M128 256C198.692 256 256 198.692 256 128C256 57.3075 198.692 0 128 0C57.3075 0 0 57.3075 0 128C0 198.692 57.3075 256 128 256Z" fill="white"/>
<path fill-rule="evenodd" clip-rule="evenodd" d="M128 35.0018L127.998 35.0034L127.999 35L128 35.0018V134.27V220.499L127.999 220.5L127.997 220.498L128 134.27V35.0018ZM210.498 171.916L210.499 171.917L128 220.499V220.5L210.5 171.917L210.498 171.916Z" fill="#6697FF"/>
<path fill-rule="evenodd" clip-rule="evenodd" d="M127.998 35.0034L128 35V35.0018V134.27V220.499V220.5L127.997 220.498L128 134.27V35.0018L127.998 35.0034Z" fill="#6697FF"/>
<path d="M174.697 112.5L128 134.27L210.498 171.916L174.697 112.5Z" fill="#8DD783"/>
<path d="M210.499 171.917L210.498 171.916L128 134.27V220.499L210.499 171.917Z" fill="#75BA70"/>
<path d="M127.997 220.498L128 134.27L45.5 171.917L127.997 220.498Z" fill="#629B58"/>
<path d="M81.3018 112.5L45.5 171.917L128 134.27L81.3018 112.5Z" fill="#75BA70"/>
<path d="M81.3018 112.5L128 134.27V35.0018L127.998 35.0034L81.3018 112.5Z" fill="#8DCD82"/>
<path d="M128 134.27L174.697 112.5L128 35.0018V134.27Z" fill="#9CE092"/>
</svg>

<svg xmlns="http://www.w3.org/2000/svg" fill="none" viewBox="0 0 256 256"><path fill="#000" d="M128 256c70.692 0 128-57.308 128-128S198.692 0 128 0 0 57.308 0 128s57.308 128 128 128"/><path fill="#fff" d="M128 256c70.692 0 128-57.308 128-128S198.692 0 128 0 0 57.308 0 128s57.308 128 128 128"/><path fill="#6697FF" fill-rule="evenodd" d="m128 35.002-.002.001.001-.003zv185.497l-.001.001-.002-.002.003-86.228zm82.498 136.914.001.001L128 220.499v.001l82.5-48.583z" clip-rule="evenodd"/><path fill="#6697FF" fill-rule="evenodd" d="M127.998 35.003 128 35v185.5l-.003-.002.003-86.228V35.002z" clip-rule="evenodd"/><path fill="#8DD783" d="M174.697 112.5 128 134.27l82.498 37.646z"/><path fill="#75BA70" d="m210.499 171.917-.001-.001L128 134.27v86.229z"/><path fill="#629B58" d="M127.997 220.498 128 134.27l-82.5 37.647z"/><path fill="#75BA70" d="M81.302 112.5 45.5 171.917 128 134.27z"/><path fill="#8DCD82" d="M81.302 112.5 128 134.27V35.002l-.002.001z"/><path fill="#9CE092" d="m128 134.27 46.697-21.77L128 35.002z"/></svg>
